X:1
T:Title
%%score { 1 | 2 }
L:1/8
M:3/4
K:E
V:1 treble nm="Grand Piano"
V:2 bass 
V:1
 z2 z2[Q:1/4=94] B,2 | GG G2 B2 | E[B,DF] [B,EG]2 [EGB]2 | [EAc][EAc] [EGB]2 [B,EG]2 | %4
[M:2/4] [B,EG][B,EG] [B,DF]2 |[M:1/4] B,2 |[M:3/4] GG G2 B2 | E[B,DF] [B,EG]2 [EGB]2 | %8
 [EAc][EAc] [EGB]2 [B,EG]2 |[M:5/8] [B,EG][A,DF] E3 |[M:1/4] B2 |[M:3/4] G[GB] [Ac]2 [GB]2 | %12
 [EAc][EAc] [EGB]2 G2 | EG B2 E2 |[M:2/4] DE [B,DF]2 |[M:1/4] B,2 |[M:3/4] GG G2 B2 | %17
 E[B,DF] [B,EG]2 [EGB]2 | [EAc][EAc] [EGB]2 [B,EG]2 |[M:5/8] [B,EG][A,DF] [G,E]3 |] %20
V:2
 z2 z2 [E,G,]2 | [E,B,E][E,B,E] [E,B,E]2 [D,F,B,]2 | [C,G,C]B,, E,2 E,2 | A,,C, E,2 E,2 | %4
[M:2/4] E,E, B,,2 |[M:1/4] B,,2 |[M:3/4] [E,B,][E,B,E] [E,B,E]2 [D,F,B,]2 | [C,G,C]B,, E,2 E,2 | %8
 A,,C, E,2 E,2 |[M:5/8] B,,B,, [E,G,]3 |[M:1/4] [E,G,E]2 |[M:3/4] [E,B,E][E,E] [E,E]2 [E,E]2 | %12
 A,,C, E,2 [E,B,E]2 | [E,G,][E,G,E] [E,G,E]2 [G,B,]2 |[M:2/4] [F,A,B,][E,G,B,] B,,2 |[M:1/4] B,,2 | %16
[M:3/4] [E,B,][E,B,E] [E,B,E]2 [D,F,B,]2 | [C,G,C]B,, E,2 E,2 | A,,C, E,2 E,2 | %19
[M:5/8] B,,B,, E,3 |] %20

